outputs/icons/image/pro_sharp.svg

<svg width="1200" height="1200" viewBox="0 0 1200 1200" fill="none" xmlns="http://www.w3.org/2000/svg"><g clip-path="url(#clip0_1104_2996)"><path fill-rule="evenodd" d="M325 450H150V750H225V650H325C344.732 649.495 363.516 641.43 377.473 627.475C391.43 613.515 399.494 594.73 400 575V525C399.494 505.27 391.43 486.484 377.473 472.527C363.516 458.57 344.732 450.506 325 450ZM325 575H225V525H325V575ZM725 575V525C724.495 505.27 716.43 486.484 702.475 472.527C688.515 458.57 669.73 450.506 650 450H475V750H550V650H605L650 750H725L680 645C692.905 638.205 703.83 628.19 711.715 615.925C719.6 603.655 724.175 589.56 725 575ZM650 575H550V525H650V575ZM875 450H975C994.73 450.506 1013.515 458.57 1027.475 472.527C1041.43 486.484 1049.495 505.27 1050 525V675C1049.495 694.73 1041.43 713.515 1027.475 727.475C1013.515 741.43 994.73 749.495 975 750H875C855.27 749.495 836.485 741.43 822.525 727.475C808.57 713.515 800.505 694.73 800 675V525C800.505 505.27 808.57 486.484 822.525 472.527C836.485 458.57 855.27 450.506 875 450ZM875 675H975V525H875V675Z" fill="#1D1E23"/></g><defs><clipPath id="clip0_1104_2996"><path width="24" fill="white" d="M0 0H1200V1200H0V0z"/></clipPath></defs></svg>

<svg xmlns="http://www.w3.org/2000/svg" width="1200" height="1200" fill="none"><g fill="#000" fill-rule="evenodd" clip-path="url(#a)"><path d="M325 450H150v300h75V650h100a77 77 0 0 0 52.473-22.525A77.01 77.01 0 0 0 400 575v-50a77 77 0 0 0-75-75m0 125H225v-50h100zM725 575v-50a77 77 0 0 0-22.525-52.473A77.01 77.01 0 0 0 650 450H475v300h75V650h55l45 100h75l-45-105a84.5 84.5 0 0 0 31.715-29.075A84.54 84.54 0 0 0 725 575m-75 0H550v-50h100zM875 450h100a77.01 77.01 0 0 1 52.475 22.527A77 77 0 0 1 1050 525v150a77.02 77.02 0 0 1-22.525 52.475A77.02 77.02 0 0 1 975 750H875a76.999 76.999 0 0 1-75-75V525a77 77 0 0 1 22.53-52.473A77 77 0 0 1 875 450m0 225h100V525H875z"/></g><defs><clipPath id="a"><path fill="#fff" d="M0 0h1200v1200H0z"/></clipPath></defs></svg>
